svg/fluentui-system-icons/ic_fluent_mail_inbox_16_filled.svg

<svg width="16" height="16" viewBox="0 0 16 16" fill="none" xmlns="http://www.w3.org/2000/svg">
<path d="M2 4.5C2 3.11929 3.11929 2 4.5 2H11.5C12.8807 2 14 3.11929 14 4.5V11.5C14 12.8807 12.8807 14 11.5 14H4.5C3.11929 14 2 12.8807 2 11.5V4.5ZM13 8V4.5C13 3.67157 12.3284 3 11.5 3H4.5C3.67157 3 3 3.67157 3 4.5V8H5.5C5.77614 8 6 8.22386 6 8.5C6 8.55217 6.00784 8.66189 6.03226 8.80843C6.07341 9.05536 6.14724 9.30145 6.25971 9.52639C6.56844 10.1439 7.10266 10.5 8 10.5C8.89734 10.5 9.43156 10.1439 9.74029 9.52639C9.85276 9.30145 9.92659 9.05536 9.96774 8.80843C9.99216 8.66189 10 8.55217 10 8.5C10 8.25454 10.1769 8.05039 10.4101 8.00806L10.5 8H13Z" fill="#212121"/>
</svg>

<svg xmlns="http://www.w3.org/2000/svg" width="16" height="16"><path d="M2 4.5A2.5 2.5 0 0 1 4.5 2h7A2.5 2.5 0 0 1 14 4.5v7a2.5 2.5 0 0 1-2.5 2.5h-7A2.5 2.5 0 0 1 2 11.5v-7ZM13 8V4.5A1.5 1.5 0 0 0 11.5 3h-7A1.5 1.5 0 0 0 3 4.5V8h2.5a.5.5 0 0 1 .5.5c0 .052.008.162.032.308.041.247.115.493.228.718.308.618.843.974 1.74.974s1.432-.356 1.74-.974c.113-.225.187-.47.228-.718.024-.146.032-.256.032-.308a.5.5 0 0 1 .41-.492L10.5 8H13Z"/></svg>
